img/svg/economic.svg

<svg width="56" height="58" viewBox="0 0 56 58" fill="none" xmlns="http://www.w3.org/2000/svg">
<path d="M14.4102 41.02V52.55C14.4102 54.74 16.1902 56.52 18.3802 56.52C20.5702 56.52 22.3502 54.74 22.3502 52.55V49.58H36.3802" stroke="white" stroke-miterlimit="10"/>
<path d="M36.3701 46.0999V52.6399C36.3701 54.8399 38.1601 56.6299 40.3601 56.6299C42.5601 56.6299 44.3501 54.8399 44.3501 52.6399V46.0999C44.3501 46.0999 45.6901 45.9699 47.5101 44.1899" stroke="white" stroke-miterlimit="10"/>
<path d="M48.8802 41.85C48.8802 41.85 50.3502 39.55 50.7302 39.49C50.9502 39.45 52.5102 39.46 53.7802 39.47C54.7002 39.48 55.4502 38.73 55.4502 37.81V31.86C55.4502 30.94 54.7102 30.2 53.7902 30.2H50.7602C50.7602 30.2 50.3102 22.86 42.4302 18.55V11.24H39.2702L32.1802 18.44" stroke="white" stroke-miterlimit="10"/>
<path d="M14.4099 45.84C14.4099 45.84 10.6399 44.12 9.13988 40C7.63988 35.88 7.66988 29.53 10.1299 25.26C12.5899 20.98 19.0299 17.79 19.0299 17.79C19.0299 17.79 20.8199 19.67 20.8799 21.27H32.9399" stroke="white" stroke-miterlimit="10"/>
<path d="M5.28 37.35C5.28 38.53 4.32 39.49 3.14 39.49C1.96 39.49 1 38.54 1 37.35C1 35.66 2.22 33.71 4.61 33.71H7.87" stroke="white" stroke-miterlimit="10"/>
<path d="M44.47 25.1499V28.9599" stroke="white" stroke-miterlimit="10"/>
<path d="M10.6102 14.86C14.4375 14.86 17.5402 11.7573 17.5402 7.93C17.5402 4.10267 14.4375 1 10.6102 1C6.78284 1 3.68018 4.10267 3.68018 7.93C3.68018 11.7573 6.78284 14.86 10.6102 14.86Z" stroke="white" stroke-miterlimit="10"/>
<path d="M10.1899 12.7101V11.5001C9.48986 11.4901 8.76986 11.2701 8.35986 10.9701L8.64986 10.1701C9.07986 10.4601 9.70986 10.6901 10.3799 10.6901C11.2299 10.6901 11.8099 10.2001 11.8099 9.51011C11.8099 8.85011 11.3399 8.44011 10.4499 8.08011C9.21986 7.60011 8.45986 7.05011 8.45986 6.01011C8.45986 5.01011 9.16986 4.26011 10.2699 4.08011V2.86011H11.0099V4.02011C11.7299 4.04011 12.2199 4.24011 12.5699 4.44011L12.2699 5.23011C12.0199 5.09011 11.5299 4.82011 10.7599 4.82011C9.83986 4.82011 9.48986 5.37011 9.48986 5.85011C9.48986 6.47011 9.92986 6.79011 10.9799 7.22011C12.2199 7.72011 12.8399 8.35011 12.8399 9.41011C12.8399 10.3601 12.1799 11.2401 10.9399 11.4501V12.7001H10.1899V12.7101Z" fill="white"/>
<path d="M10.1899 12.7101V11.5001C9.48986 11.4901 8.76986 11.2701 8.35986 10.9701L8.64986 10.1701C9.07986 10.4601 9.70986 10.6901 10.3799 10.6901C11.2299 10.6901 11.8099 10.2001 11.8099 9.51011C11.8099 8.85011 11.3399 8.44011 10.4499 8.08011C9.21986 7.60011 8.45986 7.05011 8.45986 6.01011C8.45986 5.01011 9.16986 4.26011 10.2699 4.08011V2.86011H11.0099V4.02011C11.7299 4.04011 12.2199 4.24011 12.5699 4.44011L12.2699 5.23011C12.0199 5.09011 11.5299 4.82011 10.7599 4.82011C9.83986 4.82011 9.48986 5.37011 9.48986 5.85011C9.48986 6.47011 9.92986 6.79011 10.9799 7.22011C12.2199 7.72011 12.8399 8.35011 12.8399 9.41011C12.8399 10.3601 12.1799 11.2401 10.9399 11.4501V12.7001H10.1899V12.7101Z" fill="white"/>
<path d="M25.4399 20.37V19.16C24.7399 19.15 24.0199 18.93 23.6099 18.63L23.8999 17.83C24.3299 18.12 24.9599 18.35 25.6299 18.35C26.4799 18.35 27.0599 17.86 27.0599 17.17C27.0599 16.51 26.5899 16.1 25.6999 15.74C24.4799 15.26 23.7199 14.71 23.7199 13.66C23.7199 12.66 24.4299 11.91 25.5299 11.73V10.52H26.2699V11.68C26.9899 11.7 27.4799 11.9 27.8299 12.1L27.5299 12.89C27.2799 12.75 26.7899 12.48 26.0199 12.48C25.0999 12.48 24.7499 13.03 24.7499 13.51C24.7499 14.13 25.1899 14.45 26.2399 14.88C27.4799 15.38 28.0999 16.01 28.0999 17.07C28.0999 18.02 27.4399 18.9 26.1999 19.11V20.36H25.4399V20.37Z" fill="white"/>
<path d="M19.5099 18.3399L19.2399 17.5999C19.0499 16.9599 18.9399 16.2799 18.9399 15.5799C18.9399 11.7599 22.0399 8.6499 25.8699 8.6499C29.6999 8.6499 32.7999 11.7499 32.7999 15.5799C32.7999 17.8499 31.7099 19.8599 30.0299 21.1199L29.3199 21.2599" stroke="white" stroke-miterlimit="10"/>
</svg>

<svg width="56" height="58" fill="none" xmlns="http://www.w3.org/2000/svg"><path d="M14.41 41.02v11.53c0 2.19 1.78 3.97 3.97 3.97 2.19 0 3.97-1.78 3.97-3.97v-2.97h14.03" stroke="#fff" stroke-miterlimit="10"/><path d="M36.37 46.1v6.54c0 2.2 1.79 3.99 3.99 3.99s3.99-1.79 3.99-3.99V46.1s1.34-.13 3.16-1.91m1.37-2.34s1.47-2.3 1.85-2.36c.22-.04 1.78-.03 3.05-.02.92.01 1.67-.74 1.67-1.66v-5.95c0-.92-.74-1.66-1.66-1.66h-3.03s-.45-7.34-8.33-11.65v-7.31h-3.16l-7.09 7.2m-17.77 27.4S10.64 44.12 9.14 40c-1.5-4.12-1.47-10.47.99-14.74 2.46-4.28 8.9-7.47 8.9-7.47s1.79 1.88 1.85 3.48h12.06" stroke="#fff" stroke-miterlimit="10"/><path d="M5.28 37.35c0 1.18-.96 2.14-2.14 2.14-1.18 0-2.14-.95-2.14-2.14 0-1.69 1.22-3.64 3.61-3.64h3.26m36.6-8.56v3.81m-33.86-14.1a6.93 6.93 0 100-13.86 6.93 6.93 0 000 13.86z" stroke="#fff" stroke-miterlimit="10"/><path d="M10.19 12.71V11.5c-.7-.01-1.42-.23-1.83-.53l.29-.8c.43.29 1.06.52 1.73.52.85 0 1.43-.49 1.43-1.18 0-.66-.47-1.07-1.36-1.43-1.23-.48-1.99-1.03-1.99-2.07 0-1 .71-1.75 1.81-1.93V2.86h.74v1.16c.72.02 1.21.22 1.56.42l-.3.79c-.25-.14-.74-.41-1.51-.41-.92 0-1.27.55-1.27 1.03 0 .62.44.94 1.49 1.37 1.24.5 1.86 1.13 1.86 2.19 0 .95-.66 1.83-1.9 2.04v1.25h-.75v.01z" fill="#fff"/><path d="M10.19 12.71V11.5c-.7-.01-1.42-.23-1.83-.53l.29-.8c.43.29 1.06.52 1.73.52.85 0 1.43-.49 1.43-1.18 0-.66-.47-1.07-1.36-1.43-1.23-.48-1.99-1.03-1.99-2.07 0-1 .71-1.75 1.81-1.93V2.86h.74v1.16c.72.02 1.21.22 1.56.42l-.3.79c-.25-.14-.74-.41-1.51-.41-.92 0-1.27.55-1.27 1.03 0 .62.44.94 1.49 1.37 1.24.5 1.86 1.13 1.86 2.19 0 .95-.66 1.83-1.9 2.04v1.25h-.75v.01zm15.25 7.66v-1.21c-.7-.01-1.42-.23-1.83-.53l.29-.8c.43.29 1.06.52 1.73.52.85 0 1.43-.49 1.43-1.18 0-.66-.47-1.07-1.36-1.43-1.22-.48-1.98-1.03-1.98-2.08 0-1 .71-1.75 1.81-1.93v-1.21h.74v1.16c.72.02 1.21.22 1.56.42l-.3.79c-.25-.14-.74-.41-1.51-.41-.92 0-1.27.55-1.27 1.03 0 .62.44.94 1.49 1.37 1.24.5 1.86 1.13 1.86 2.19 0 .95-.66 1.83-1.9 2.04v1.25h-.76v.01z" fill="#fff"/><path d="M19.51 18.34l-.27-.74a6.933 6.933 0 016.63-8.95c3.83 0 6.93 3.1 6.93 6.93 0 2.27-1.09 4.28-2.77 5.54l-.71.14" stroke="#fff" stroke-miterlimit="10"/></svg>
